build/communication/WhatsUpRoundSolid.svg

<svg xmlns="http://www.w3.org/2000/svg" fill="none" viewBox="0 0 24 24" focusable="false"><path d="M0 0H24V24H0z"/><path fill="#74767B" fill-rule="evenodd" d="M12 3C7.02954 3 3 7.02945 3 12C3 16.9706 7.02954 21 12 21C16.9705 21 21 16.9706 21 12C21 7.02945 16.9705 3 12 3ZM12.0232 6.5C13.4883 6.50052 14.8633 7.07092 15.8972 8.10617C16.9314 9.14142 17.5005 10.5175 17.5 11.9811C17.499 15.0009 15.0393 17.458 12.0208 17.458C11.1042 17.4577 10.2034 17.2279 9.40356 16.7914L6.5 17.553L7.2771 14.7147C6.79785 13.8843 6.54541 12.942 6.5459 11.9766C6.54712 8.95679 9.00415 6.5 12.0232 6.5ZM9.7041 15.8986C10.4033 16.3132 11.2063 16.5328 12.0232 16.5331C14.5322 16.5331 16.5742 14.4907 16.5754 11.9806C16.5759 10.7644 16.1028 9.62042 15.2434 8.76007C14.3838 7.89948 13.241 7.42545 12.0249 7.42493C9.51392 7.42493 7.47168 9.46704 7.4707 11.9769C7.47021 12.8369 7.71094 13.6747 8.1665 14.3995L8.27466 14.5718L7.81494 16.2518L9.53784 15.7998L9.7041 15.8986ZM13.585 12.6786C13.7104 12.7243 14.3833 13.0552 14.52 13.1237C14.657 13.1923 14.748 13.2272 14.7822 13.2842C14.8164 13.3412 14.8164 13.6154 14.7024 13.935C14.5884 14.2546 14.0415 14.5464 13.7788 14.5857C13.543 14.6209 13.2446 14.6356 12.9167 14.5314C12.718 14.4683 12.4629 14.384 12.1365 14.243C10.7639 13.65 9.86719 12.2679 9.79883 12.1765C9.73022 12.0851 9.23999 11.4341 9.23999 10.7607C9.23999 10.0873 9.59326 9.7562 9.71899 9.61911C9.84448 9.48203 9.99268 9.44788 10.084 9.44788C10.1753 9.44788 10.2664 9.44867 10.3462 9.45261C10.4258 9.45227 10.5562 9.45233 10.6541 9.68765C10.7683 9.96155 11.042 10.6352 11.0762 10.7037C11.1104 10.7723 11.1331 10.8521 11.0874 10.9435C11.0417 11.0346 11.019 11.0919 10.9507 11.1717C10.8821 11.2515 10.8066 11.35 10.7451 11.4115C10.677 11.4795 10.6055 11.5536 10.6853 11.6906C10.7651 11.8277 11.0398 12.2757 11.4468 12.6387C11.9695 13.1048 12.4104 13.2493 12.5474 13.3178C12.6841 13.3864 12.7639 13.3751 12.8438 13.2837C12.9236 13.1926 13.186 12.8842 13.2771 12.7471C13.3682 12.6101 13.4595 12.6329 13.585 12.6786Z"/></svg>

<svg xmlns="http://www.w3.org/2000/svg" fill="none" viewBox="0 0 24 24" focusable="false"><path fill="none" d="M0 0h24v24H0z"/><path fill="#74767B" fill-rule="evenodd" d="M12 3c-4.98 0-9 4.02-9 9 0 4.97 4.02 9 9 9a9 9 0 0 0 9-9c0-4.98-4.03-9-9-9m.02 3.5c1.46 0 2.84.57 3.87 1.6a5.44 5.44 0 0 1 1.61 3.88c-.01 3.02-2.47 5.47-5.48 5.47-.92 0-1.82-.23-2.62-.66l-2.9.76.77-2.84c-.48-.83-.73-1.77-.73-2.74C6.54 8.95 9 6.5 12.02 6.5M9.7 15.89c.7.42 1.5.64 2.32.64 2.51 0 4.55-2.04 4.55-4.55 0-1.22-.47-2.36-1.33-3.22-.86-.87-2-1.34-3.22-1.34-2.51 0-4.55 2.04-4.55 4.55 0 .86.24 1.7.69 2.42l.11.18-.46 1.68 1.72-.46zm3.88-3.22c.13.05.8.38.94.45.13.07.22.1.26.16.03.06.03.33-.08.65-.12.32-.66.61-.93.65-.23.04-.53.05-.86-.05-.2-.07-.45-.15-.78-.29-1.37-.59-2.27-1.98-2.34-2.07-.06-.09-.56-.74-.56-1.41 0-.68.36-1.01.48-1.15a.55.55 0 0 1 .37-.17c.09 0 .18 0 .26.01.08 0 .21 0 .31.23.11.28.39.95.42 1.02.04.07.06.15.01.24-.04.09-.07.15-.13.23-.07.08-.15.18-.21.24-.07.06-.14.14-.06.28.08.13.35.58.76.94.52.47.97.61 1.1.68.14.07.22.06.3-.03s.34-.4.43-.54c.09-.13.18-.11.31-.07"/></svg>
